X:1
T:D minor Oliver Holden, 1797
T:Unknown author(s)
T:Hark! She bids all her friends adieu Dirge, Composed on the death of a young lady in Boston No copyright. Transcribed from The Worcester Collection, 1797.
%%score [ 1 2 3 ]
L:1/8
M:4/4
K:F
V:1 treble nm="Treble" snm="Tr."
V:2 treble-8 nm="Tenor" snm="T."
V:3 bass nm="Bass" snm="B."
V:1
 A4 z2 A2 | A4 G2 F2 | E6 E2 | D8 | z4 A4 | (A2 d2) (^c2 A2) | (B2 G2) (A2 d2) | %7
 (^c2 d2) (A2 [=Bd]2) | !fermata!A4 z2 d2 | d4 d4 | (d2 f2) (e2 d2) | e4 e4 | e6 f2 | g2 a2 d2 d2 | %14
 d4 ^c4 | d8 :: z8 | z8 | z8 | z4"^And is the lovely, lovely shadow  fled? _______" A4 | %20
 F2 A2 c2 A2 | A2 F2 F2 E2 | D8- | D8- | D4 d4 | e6 e2 | f2 d2 ^c2 d2 | e6 e2 | f2 e2 d2 e2 | %29
 f4 e4 | (d4 ^c2) A2 | d2 d2 ^c2 A2 | d2 d2 ^c2 d2 | f2 e2 g2 e2 | d4 ^c4 | d8 :: z8 | z8 | z4 d4 | %39
 d4 e4 | !fermata!e4 z2 A2 | F4 E4 | D6 E2 | F2 G2 A2 A2 | d2 e2 f2 e2 | d4 e4 | f6 f2 | e4 d4 | %48
 (^c2 d2 A3 B | A3 G F2) G2 | A4 A4 | A6 G2 | F2 G2 A2 G2 | F4 E4 | F6 E2 | F2 G2 A2 A2 | %56
 d2 e2 f2 d2 | ^c6 c2 | d8 :| %59
V:2
"^Hark! She bids all her friends adieu.       Some  an  -  gel       calls her        to    the  spheres,  Our eyes the radiant     saint pur –" d4 z2 d2 | %1
 d4 e2 d2 | ^c6 c2 | d8 | z4 d4 | (d2 A2) A4 | (G2 B2) A4 | A4 G4 | !fermata!A4 z2 A2 | A4 A4 | %10
 (A2 d2) (^c2 B2) | A4 A4 | %12
"^– sue Through liquid telescopes of tears.                And is the lovely, lovely shadow fled?                                            And     is the lovely," A6 A2 | %13
 A2 F2 F2 A2 | A4 A4 | A8 :: z4 A4 | F2 A2 c2 A2 | A2 F2 F2 E2 | D4 z4 | z8 | z4 A4 | F2 A2 c2 A2 | %23
"^lovely shadow fled? The  blooming  wonders  of   her    years      So  soon enshined among        the  dead,            So soon enshrined among the dead:   She" A2 F2 F2 E2 | %24
 D4 d4 | ^c6 c2 | d2 A2 A2 d2 | ^c6 c2 | d2 A2 A2 ^c2 | d4 A4 | (A4 A2) F2 | A2 A2 A2 F2 | %32
 A2 A2 A2 A2 | %33
"^justly claims our pious tears.            Farewell, bright soul, farewell bright soul,  a short farewell: 'Till we shall meet, till we shall meet again above, In" A2 A2 A2 B2 | %34
 A4 A4 | A8 :: z4 d4 | ^c4 c4 | !fermata!e4 d4 | f4 B4 | !fermata!A4 z2 F2 | A4 A4 | A6 G2 | %43
 F2 G2 A2 A2 | d2 ^c2 [Ad]2 A2 | A4 A4 | A6 A2 | %47
"^the sweet    groves __________ where pleasures dwell, And trees of life bear fruits of love, And trees of life, And trees of life bear fruits of love." A4 A4 | %48
 (A2 B2 A3 G) | F3 G A2 [G^c]2 | d4 d4 | ^c6 A2 | A2 G2 F2 G2 | A4 G4 | A6 A2 | A2 ^c2 d2 d2 | %56
 A2 A2 A2 B2 | A6 A2 | A8 :| %59
V:3
 D,4 z2 D,2 | D,4 ^C,2 D,2 | A,,6 A,,2 | D,8 | z4 D,4 | A,,4 A,,4 | D,4 F,4 | E,4 E,4 | %8
 !fermata!A,,4 z2 D,2 | D,4 D,4 | A,4 A,4 | A,4 A,4 | A,6 D,2 | ^C,2 D,2 D,2 D,2 | A,4 A,4 | D,8 :: %16
 z8 | z8 | z8 | z8 | z4"^And     is the lovely, lovely shadow" A,4 | F,2 A,2 C2 A,2 | %22
 A,2 F,2 F,2 E,2 |"^fled? _______" D,8- | D,4 D,4 | A,6 A,2 | D2 D2 A,2 D,2 | A,6 A,2 | %28
 D,2 ^C,2 D,2 A,,2 | D,4 ^C,4 | (D,4 A,,2) D,2 | D,2 D,2 A,,2 D,2 | D,2 D,2 A,,2 D,2 | %33
 D,2 [^C,E,]2 [D,F,]2 G,2 | A,4 A,4 | D,8 :: z4 D,4 | [A,,A,]4 [A,,A,]4 | !fermata![A,,A,]4 B,4 | %39
 A,4 G,4 | !fermata!F,4 z2 A,2 | [A,,A,]4 A,,4 | D,6 E,2 | F,2 G,2 A,2 A,2 | D2 ^C2 D2 A,2 | %45
 D,4 C,4 | F,6 D,2 | ^C,4 D,4 | (A,2 G,2 F,2 E,2 | D,6) E,2 | F,4 D,4 | A,,6 C,2 | %52
 F,2 E,2 F,2 C,2 | F,4 C,4 | F,6 C,2 | F,2 E,2 D,2 D,2 | F,2 E,2 D,2 G,2 | A,6 A,2 | D,8 :| %59

